img/icons/icon-radio-on.svg

<svg xmlns="http://www.w3.org/2000/svg" width="26" height="25" fill="none">
  <path fill="#B5B5B5" fill-rule="evenodd" d="M.162415 12.5C.162415 5.597 5.75941 0 12.6624 0c6.903 0 12.5 5.597 12.5 12.5s-5.597 12.5-12.5 12.5C5.75941 25 .162415 19.403.162415 12.5zm20.999985 0c0-4.687-3.813-8.5-8.5-8.5-4.68699 0-8.49999 3.813-8.49999 8.5 0 4.687 3.813 8.5 8.49999 8.5 4.687 0 8.5-3.813 8.5-8.5z" clip-rule="evenodd"/>
  <path fill="#B5B5B5" d="M12.6624 17c2.4853 0 4.5-2.0147 4.5-4.5s-2.0147-4.5-4.5-4.5-4.49999 2.0147-4.49999 4.5S10.1771 17 12.6624 17z"/>
</svg>

<svg width="26" height="25" viewBox="0 0 26 25" fill="none" xmlns="http://www.w3.org/2000/svg">
<path fill-rule="evenodd" clip-rule="evenodd" d="M0.162415 12.5C0.162415 5.597 5.75941 0 12.6624 0C19.5654 0 25.1624 5.597 25.1624 12.5C25.1624 19.403 19.5654 25 12.6624 25C5.75941 25 0.162415 19.403 0.162415 12.5ZM21.1624 12.5C21.1624 7.813 17.3494 4 12.6624 4C7.97541 4 4.16241 7.813 4.16241 12.5C4.16241 17.187 7.97541 21 12.6624 21C17.3494 21 21.1624 17.187 21.1624 12.5Z" fill="#C5C5C5"/>
<path d="M12.6624 17C15.1477 17 17.1624 14.9853 17.1624 12.5C17.1624 10.0147 15.1477 8 12.6624 8C10.1771 8 8.16241 10.0147 8.16241 12.5C8.16241 14.9853 10.1771 17 12.6624 17Z" fill="#C5C5C5"/>
</svg>
